X:1
T:How Sweet Are the Tidings
T:Arranged from John Rogers Thomas, 1858
T:How Sweet Are the Tidings
T:Public Domain
T:Public Domain
C:Arranged from John Rogers Thomas, 1858
Z:Public Domain
%%score ( 1 2 ) ( 3 4 )
L:1/8
M:4/4
K:Db
V:1 treble 
V:2 treble 
V:3 bass 
V:4 bass 
V:1
 ([DF][EG]) | [FA]2 [=E=G][FA] [Fd]2 [_Ec][DB] | ([DA][DB])(D[CE]) [DF]2 ([DF][DG]) | %3
w: 1.~How *|sweet are the tid- ings that|greet~the * pilgrim’s * ear, As~he *|
w: 2.~The *|moss- y old graves where the|pil- * grims * sleep Shall *|
w: 3.~There~we’ll *|meet ne’er to part in our|happy * Eden * home, Sweet *|
w: 4.~Halle- *|lu- jah, A- men! hal- le-|lu- * jah~a- * gain! Soon,~if *|
 [DA]2 [DB][DA] D2 [B,C][B,D] | [CE]4 z2 ([DF][EG]) | [FA]2 [=E=G][FA] [Fd]2 [_Ec][DB] | %6
w: wan- ders in ex- ile from|Soon, soon *|will the Sav- ior in glo-|
w: o- pen as wide as be-|And~the mil- *|lions that sleep in the might-|
w: songs of re- demp- tion we’ll|From~the north, *|from the south, all the ran-|
w: faith- ful, we all shall be|O,~be watch- *|ful, be hope- ful, be joy-|
 ([DA][DB])(D[CE]) [DF]2 ([DG][DB]) | [DA]2 [EG][DF] [CE]2 ([DF][CE]) | D4 z2 ||"^Refrain" [DA]2 | %10
w: ry~ap- * pear, * And soon *|the king- dom come. * *|||
w: y * ~deep * Shall live *|this earth once more. * *|||
w: somed~shall * come, * And wor- *|our heav’n- ly King. * *|||
w: ful~till * then, * And~a crown *|bright glo- ry~we’ll wear. * *|||
 [DB] [DG]3 [Dd]2 (cB) | [DB][DA][DA][DF] [DA]2 [DF][DG] | [DA]2 [DB][DA] D2 D2 | %13
w: |||
w: |||
w: |||
w: |||
 [CE]4 z2 [DF][EG] | [FA]2 [Fd]2 [GB]2 [Gd]2 | [FA]>[GB] D[CE] [DF]2 [DG][DB] | %16
w: |||
w: |||
w: |||
w: |||
 [DA]2 [EG][DF] [CE]2 ([DF][CE]) | D6 |] %18
w: ||
w: ||
w: ||
w: ||
V:2
 x2 | x8 | x8 | x4 D2 x2 | x8 | x8 | x2 D x5 | x8 | D4 x2 || x2 | x6 D2 | x8 | x4 D2 D2 | x8 | x8 | %15
w: |||home!|||will|||||||||
w: |||fore,|||on|||||||||
w: |||sing;|||ship|||||||||
w: |||there;|||of|||||||||
 x8 | x8 | D6 |] %18
w: |||
w: |||
w: |||
w: |||
V:3
 ([D,A,][D,A,]) | [D,D]2 [D,D][D,D] [D,A,]2 [D,A,][D,G,] | %2
w: ~ *|~ ~ ~ ~ ~ ~|
 ([D,F,][D,G,])([B,,F,][A,,A,]) [D,A,]2 ([D,A,][D,G,]) | %3
w: ~ * ~ * ~ ~ *|
 [D,F,]2 [D,G,][D,F,] [B,,F,]2 [B,,F,][B,,F,] | [A,,A,]4 z2 ([D,A,][D,A,]) | %5
w: ~ ~ ~ ~ ~ ~|~ ~ *|
 [D,D]2 [D,D][D,D] [D,A,]2 [D,A,][D,G,] | ([D,F,][D,G,])([B,,F,][A,,A,]) [D,A,]2 ([G,,B,][G,,G,]) | %7
w: ~ ~ ~ ~ ~ ~|~ * ~ * ~ ~ *|
 [A,,F,]2 [A,,B,][A,,B,] [A,,B,]2 ([A,,B,][A,,G,]) | [D,F,]4 z2 || [D,F,]2 | %10
w: ~ ~ ~ ~ ~ *|~|He’s|
 [G,,G,] [G,,B,]3 [G,,B,]2 (A,G,) | [E,G,][D,F,][D,F,][D,A,] [D,F,]2 [D,A,][D,G,] | %12
w: com- ing, com- ing, *|ing soon I know, Com- ing back|
 [D,F,]2 [D,G,][D,F,] [B,,F,]2 [B,,F,]2 | [A,,A,]4 z2 [D,A,][D,A,] | %14
w: to this earth a- gain;|And the wear-|
 [D,A,]2 [D,A,]2 [G,,D]2 [G,,B,]2 | [D,D]>[D,D] [B,,F,][A,,A,] [D,A,]2 [G,,A,][G,,G,] | %16
w: y pil- grims will|to glo- ry go, When the Sav-|
 [A,,F,]2 [A,,A,]2 [A,,A,]2 (A,G,) | [D,F,]6 |] %18
w: ior comes to reign. *||
V:4
 x2 | x8 | x8 | x8 | x8 | x8 | x8 | x8 | x6 || x2 | x6 G,,2 | x8 | x8 | x8 | x8 | x8 | x6 A,,2 | %17
w: ||||||||||com-|||||||
 x6 |] %18
w: |

